X: 1
T: Coats Land
T: 8x32J 3C (Roy Goldring 2002, Leaflet Dances 64-98)
C: Muriel Johnstone
C: from Originally Ours, arr. T. Traub 5-6-15
M: 6/8
L: 1/8
R: Jig
K: D
|: f/g/|"D"a2 f "A"g2 e|"D"f>ed "A"e2 c|"G"d2 B "D"A2 F|"A"Eee e2 G|"D"F2 d "Em"GeG|"D"A2 f "G"g2 f/g/|"D"a2 A "A"Bgc|"D"d3 D2 :|
C|"G"B,2 B Bcd|"D"ADD D2 F|"Em"G2 e efg|"A"cAA A2 c|"D"d2 a "G"b>ag|"D"add "A"g>fe|"Bm"fBB "E7"e2 d|"A"cAA A2 A,|||
"D"D2 F "A"E>FG|"D"F>GA "G"B2 A|"D"A2 d "A"c>de|"Bm"d>ef "A"g2 e|"D"f2 a "G"b>ag|"D"add "Em"g>fe|"D"f2 A "A"Bgc|"D"d3 D3|]

